X: 10
T: Brandywine Quick Step v.2
P: piffero secondo a0092
O: camp dupont
F: http://ancients.sudburymuster.org/mus/ssp/pdf/brandywF.pdf
Z: 2019 John Chambers <jc:trillian.mit.edu>
M: 2/4
L: 1/16
K: G
d2 |\
B4 TA4 | GFGA B2B,2 | D2D2 F2F2 | GFGA G2d2 |\
B4 TA4 | GFGA B2D2 | B,2B,2 CB,CD | B,4 z2 :|
|: z2 |\
EGEG EGEG | FEFG F2F2 | EGEG EGEG | F6 G2 |\
A2A2 A2D2 | D2D2 D2B,2 | C2C2 C2D2 | B,4 z2 :|
|: (GF) |\
.G2.G2 (G2A2) | TG2F2 F2(FG) | .A2.A2 (A2B2) | TA2G2 G2(GA) |\
.B2.B2 (B2c2) | .A2.A2 (A2F2) | D2DC C2CA, | B,4 z2 :|


